icons/trophy-fill.svg

<svg xmlns="http://www.w3.org/2000/svg" width="24" height="24" fill="none"><g clip-path="url(#a)"><g><path fill="#121212" d="M13 16.938V19H18V21H6V19H11V16.938C9.0667 16.6942 7.28882 15.7533 6 14.2917C4.71119 12.8302 4.00003 10.9486 4 9V3H20V9C20 10.9486 19.2888 12.8302 18 14.2917C16.7112 15.7533 14.9333 16.6942 13 16.938ZM1 5H3V9H1V5ZM21 5H23V9H21V5Z"/></g></g><defs><clipPath id="a"><rect width="24" height="24" fill="white"/></clipPath></defs></svg>

<svg width="24" height="24" fill="none" xmlns="http://www.w3.org/2000/svg"><g clip-path="url(#a)"><path d="M13 16.938V19h5v2H6v-2h5v-2.062A8 8 0 0 1 4 9V3h16v6a8 8 0 0 1-7 7.938ZM1 5h2v4H1V5Zm20 0h2v4h-2V5Z" /></g><defs><clipPath id="a"><path fill="#fff" d="M0 0h24v24H0z"/></clipPath></defs></svg>
